packages/icons/src/components/Icon/assets/small-outline/shield.svg

<svg width="16" height="16" viewBox="0 0 16 16" fill="none" xmlns="http://www.w3.org/2000/svg">
<path d="M13.0659 4.828C11.1336 4.57552 9.38432 3.7412 7.99951 2.50672C6.6145 3.74111 4.8656 4.57579 2.93311 4.828C2.92998 4.92783 2.9292 5.0282 2.9292 5.12879C2.92925 8.76495 4.98575 11.9212 7.99951 13.497C11.0139 11.9214 13.0707 8.7654 13.0708 5.12879C13.0708 5.02819 13.069 4.92784 13.0659 4.828ZM14.5708 5.12879C14.5707 9.35036 12.1789 13.0109 8.68311 14.8329C8.25517 15.0559 7.74481 15.0559 7.31689 14.8329C3.82124 13.0109 1.42925 9.35029 1.4292 5.12879C1.4292 5.00535 1.43099 4.8822 1.43506 4.75965L1.4458 4.62488C1.52829 3.962 2.05042 3.42926 2.72412 3.34265L3.02881 3.29773C4.54403 3.04297 5.91558 2.36097 7.01514 1.37683L7.12354 1.28797C7.64392 0.903772 8.35715 0.9036 8.87744 1.28797L8.98584 1.37683L9.20947 1.56922C10.3447 2.51249 11.743 3.14547 13.2769 3.34265C13.9505 3.42931 14.4717 3.96207 14.5542 4.62488L14.5649 4.75965L14.5708 5.12879Z" />
</svg>

<svg xmlns="http://www.w3.org/2000/svg" width="16" height="16" fill="none" viewBox="0 0 16 16">
    <path d="M13.066 4.828A9.45 9.45 0 0 1 8 2.507a9.44 9.44 0 0 1-5.067 2.321q-.004.15-.004.3A9.44 9.44 0 0 0 8 13.498a9.44 9.44 0 0 0 5.067-8.669m1.505.3c0 4.222-2.392 7.883-5.888 9.705a1.48 1.48 0 0 1-1.366 0A10.94 10.94 0 0 1 1.435 4.76l.01-.135a1.48 1.48 0 0 1 1.28-1.282l.304-.045a7.95 7.95 0 0 0 3.986-1.921l.109-.089a1.48 1.48 0 0 1 1.753 0l.109.089.223.192a7.94 7.94 0 0 0 4.068 1.774c.674.086 1.195.62 1.277 1.282l.01.135z"/>
</svg>
